MyPortfolio/_assets/img/svg/arrow-p.svg

<svg width="7" height="12" viewBox="0 0 7 12" fill="none" xmlns="http://www.w3.org/2000/svg">
<g clip-path="url(#clip0_1_797)">
<path d="M6.83256 5.7152L1.91215 0.754563C1.75462 0.59703 1.49988 0.59703 1.34235 0.754563L0.678697 1.41822C0.521163 1.57575 0.521163 1.83049 0.678697 1.98802L4.65055 6.0001L0.678697 10.0122C0.521163 10.1697 0.521163 10.4244 0.678697 10.582L1.34235 11.2456C1.49988 11.4032 1.75462 11.4032 1.91215 11.2456L6.83256 6.285C6.99009 6.12747 6.99009 5.87273 6.83256 5.7152Z" fill="#56242D"/>
</g>
<defs>
<clipPath id="clip0_1_797">
<rect width="7" height="12" fill="white"/>
</clipPath>
</defs>
</svg>

<svg xmlns="http://www.w3.org/2000/svg" width="7" height="12" fill="none"><g clip-path="url(#a)"><path fill="#56242D" d="M6.833 5.715 1.913.755a.403.403 0 0 0-.57 0l-.664.663a.403.403 0 0 0 0 .57L4.65 6 .679 10.012a.403.403 0 0 0 0 .57l.663.664a.402.402 0 0 0 .57 0l4.92-4.961a.403.403 0 0 0 0-.57Z"/></g><defs><clipPath id="a"><path fill="#fff" d="M0 0h7v12H0z"/></clipPath></defs></svg>
